X:269
T:Scully Casey's
M:6/8
L:1/8
R:jig
D:Lunasa: The Merry Sisters of Fate
Z:Jim Rolfe
K:Ador
B|AGE FGE|FGE FGE|A2B c2d|e2d efg|
~eee dBA|BAG Bcd|edc BAG|B2A A2:|
e|~aaa efg|a2a bge|ggg gfe|dBG Gcd|
e2g ded|BAG Bcd|edc BAG|B2A A2:|
%%text `B' part variation:
|a6|a2a bge|g3 gfe|dBG Gcd|
e2g ded|BAG Bcd|edc BAG|B2A A2:|
